X:1
T:5.9 Fast roll
M:4/4
L:1/16
K:C
%%score (RH) (LH)
V:RH clef=treble
V:LH clef=bass
[V:RH] ceg z13 | fac' z13 | GBd z13 | ceg z13 |
[V:LH] "C" C,E,G, z13 | "F" F,A,c z13 | "G" G,,B,,D z13 | "C" C,E,G, z13 |
